X:58
T:Merrily Kiss The Quaker
S:The Session: https://thesession.org/tunes/70#setting70
C:Traditional
R:slide
K:G
M:12/8
L:1/8
Q:1/4=150
D|: GAB G2B c2A BGE| GAB DEG A2A AGE| GAB GAB cBA BGE|1 GAB AGF G3 G2 D:|2  GAB AGF G3 G2 A|]
|: BGG AGG BGG AGG| GAB DEG A2A AGA| BGG AGG BGG AGG|1 GAB AGF G3 G2 A:|2 GAB AGF G3 G2 d |]
| g2g a2a bag edB| g2g gab a2a agf| g2g f2f ege dBA|1 GAB AGF G3 G2 d:|2 GAB AGF G6:|

